img/icons/email.svg

<svg width="35" height="35" viewBox="0 0 35 35" xmlns="http://www.w3.org/2000/svg">
<g>
<path d="M31.9184 8.70345C31.8539 8.61706 31.7731 8.54421 31.6805 8.48907C31.5879 8.43393 31.4854 8.39758 31.3787 8.38209C31.2721 8.3666 31.1634 8.37227 31.0589 8.39879C30.9545 8.42531 30.8563 8.47216 30.7699 8.53665L17.5383 18.4132C17.491 18.4487 17.4334 18.4679 17.3742 18.4679C17.3151 18.4679 17.2575 18.4487 17.2102 18.4132L4.23829 8.4929C4.15264 8.42755 4.05497 8.3797 3.95084 8.3521C3.84671 8.32449 3.73816 8.31767 3.63139 8.33201C3.52462 8.34636 3.42172 8.38159 3.32857 8.43571C3.23542 8.48982 3.15383 8.56175 3.08848 8.64739C3.02313 8.73303 2.97528 8.83071 2.94768 8.93484C2.92007 9.03897 2.91325 9.14752 2.92759 9.25429C2.94194 9.36106 2.97718 9.46396 3.03129 9.55711C3.0854 9.65026 3.15733 9.73184 3.24297 9.7972L13.4422 17.5984L3.35508 25.1999C3.26818 25.2647 3.1949 25.346 3.13942 25.4392C3.08394 25.5323 3.04735 25.6355 3.03174 25.7427C3.01612 25.85 3.02179 25.9593 3.04841 26.0644C3.07504 26.1695 3.1221 26.2683 3.18692 26.3552C3.25173 26.4421 3.33303 26.5154 3.42616 26.5709C3.5193 26.6263 3.62245 26.6629 3.72973 26.6786C3.837 26.6942 3.94631 26.6885 4.05139 26.6619C4.15648 26.6352 4.25529 26.5882 4.34219 26.5234L14.7957 18.632L16.2121 19.7257C16.5424 19.9785 16.946 20.1169 17.3619 20.1198C17.7778 20.1228 18.1834 19.9902 18.5172 19.7421L20.0047 18.632L30.5813 26.5234C30.6676 26.5878 30.7658 26.6346 30.8703 26.6611C30.9747 26.6876 31.0834 26.6933 31.19 26.6778C31.2967 26.6623 31.3992 26.626 31.4918 26.5709C31.5844 26.5158 31.6652 26.4429 31.7297 26.3566C31.7941 26.2702 31.841 26.172 31.8675 26.0676C31.894 25.9631 31.8996 25.8545 31.8841 25.7478C31.8687 25.6412 31.8323 25.5386 31.7772 25.446C31.7221 25.3534 31.6493 25.2726 31.5629 25.2081L21.3746 17.5956L31.7516 9.84368C31.9237 9.71371 32.0377 9.52119 32.0689 9.30778C32.1001 9.09438 32.046 8.87727 31.9184 8.70345Z"/>
<path d="M30.8984 5.19531H4.10156C3.01376 5.19531 1.97051 5.62744 1.20132 6.39663C0.432128 7.16582 0 8.20907 0 9.29688L0 25.7031C0 26.7909 0.432128 27.8342 1.20132 28.6034C1.97051 29.3726 3.01376 29.8047 4.10156 29.8047H30.8984C31.9862 29.8047 33.0295 29.3726 33.7987 28.6034C34.5679 27.8342 35 26.7909 35 25.7031V9.29688C35 8.20907 34.5679 7.16582 33.7987 6.39663C33.0295 5.62744 31.9862 5.19531 30.8984 5.19531ZM33.3594 25.7031C33.3594 26.3558 33.1001 26.9818 32.6386 27.4433C32.1771 27.9048 31.5511 28.1641 30.8984 28.1641H4.10156C3.44888 28.1641 2.82293 27.9048 2.36142 27.4433C1.8999 26.9818 1.64062 26.3558 1.64062 25.7031V9.29688C1.64062 8.64419 1.8999 8.01824 2.36142 7.55673C2.82293 7.09521 3.44888 6.83594 4.10156 6.83594H30.8984C31.5511 6.83594 32.1771 7.09521 32.6386 7.55673C33.1001 8.01824 33.3594 8.64419 33.3594 9.29688V25.7031Z"/>
</g>
</svg>

<svg width="35" height="35" xmlns="http://www.w3.org/2000/svg"><path d="M31.918 8.703a.821.821 0 00-1.148-.166l-13.232 9.876a.273.273 0 01-.328 0L4.238 8.493a.82.82 0 00-.995 1.304l10.2 7.801L3.354 25.2a.825.825 0 10.987 1.323l10.454-7.891 1.416 1.094a1.914 1.914 0 002.305.016l1.488-1.11 10.576 7.891a.82.82 0 00.982-1.315l-10.188-7.612 10.377-7.752a.82.82 0 00.166-1.14z"/><path d="M30.898 5.195H4.102A4.102 4.102 0 000 9.297v16.406a4.102 4.102 0 004.102 4.102h26.796A4.102 4.102 0 0035 25.703V9.297a4.102 4.102 0 00-4.102-4.102zm2.461 20.508a2.461 2.461 0 01-2.46 2.461H4.101a2.461 2.461 0 01-2.461-2.46V9.296a2.46 2.46 0 012.46-2.46h26.797a2.461 2.461 0 012.461 2.46v16.407z"/></svg>
